X: 1
T: Reel Made with Hilda
C: Hilda Chiasson & Jerry Holland
R: reel
S: handout for Wendy MacIsaac online workshop 2022-2-21
D: "Lively Steps", casette, 1988, Fiddlesticks
Z: 2022 John Chambers <jc:trillian.mit.edu>
%%slurgraces yes
%%graceslurs yes
M: C|
L: 1/8
K: E
"^A"|: c | BEGB e2eg | fBdf gfec | BEGB e2eB |cABG [1  F/F/F F :|[2 E/E/E E |]
"^B"|: g | fBdf afdf | eBef gebg |[1,3 fBdf gebg | fdec B/B/B :|[2,4 Acea gefd | e2E2 E3 :|
